public/assets/stakes.svg

<svg width="248" height="40" viewBox="0 0 248 40" fill="none" xmlns="http://www.w3.org/2000/svg">
<g filter="url(#filter0_d)">
<path fill-rule="evenodd" clip-rule="evenodd" d="M18.6271 10.4103C18.1192 10.2508 17.6349 10.1418 17.1775 10.0767C14.8791 9.7497 13.065 10.4836 11.8113 11.8424C9.67126 14.1617 9.47761 17.8769 10.9931 21.3743C12.5758 18.1099 14.7346 14.5471 17.614 11.4536C17.9499 11.0927 18.2877 10.7449 18.6271 10.4103ZM24.0025 6.26145C22.0055 5.12588 19.9971 4.41761 18.0227 4.13666C13.8392 3.54135 10.0386 4.91583 7.40167 7.77364C2.19141 13.4204 3.68232 21.5329 7.09823 26.739C7.44604 27.2691 7.82332 27.7715 8.22625 28.2466C7.98031 28.9977 7.7777 29.6703 7.61475 30.243C7.43141 30.8872 7.29755 31.4074 7.20811 31.7731C7.16337 31.956 7.1297 32.1005 7.10646 32.2028C7.09484 32.254 7.08582 32.2946 7.07933 32.3242L7.07149 32.3604L7.06896 32.3722L7.06768 32.3782C7.06768 32.3782 7.06737 32.3797 10.0026 32.9994L7.06737 32.3797C6.72509 34.0008 7.76177 35.5924 9.38286 35.9347C11.0036 36.2769 12.5948 35.2408 12.9376 33.6204L12.9379 33.6192L12.9404 33.6076L12.9574 33.5317C12.9736 33.4603 12.9997 33.348 13.0363 33.1984C13.0914 32.973 13.1702 32.6636 13.2745 32.2827C16.6371 34.1065 20.4816 34.9452 23.8721 34.9452C23.9158 34.9452 23.9592 34.9443 24.0024 34.9424C24.0457 34.9443 24.0891 34.9452 24.1328 34.9452C27.5233 34.9452 31.3678 34.1065 34.7304 32.2827C34.8347 32.6636 34.9135 32.973 34.9686 33.1984C35.0052 33.348 35.0313 33.4603 35.0475 33.5317L35.0645 33.6076L35.067 33.6192L35.0673 33.6204C35.4101 35.2408 37.0013 36.2769 38.622 35.9347C40.2431 35.5924 41.2798 34.0008 40.9375 32.3797L38.0023 32.9994C40.9375 32.3797 40.9372 32.3782 40.9372 32.3782L40.9359 32.3722L40.9334 32.3604L40.9256 32.3242C40.9191 32.2946 40.9101 32.254 40.8984 32.2028C40.8752 32.1005 40.8415 31.956 40.7968 31.7731C40.7073 31.4074 40.5735 30.8872 40.3901 30.243C40.2272 29.6703 40.0246 28.9977 39.7786 28.2466C40.1816 27.7715 40.5589 27.2691 40.9067 26.739C44.3226 21.5329 45.8135 13.4204 40.6032 7.77364C37.9663 4.91583 34.1657 3.54135 29.9822 4.13666C28.0078 4.41761 25.9994 5.12588 24.0025 6.26145ZM24.0025 13.6048C23.3505 14.1701 22.6837 14.8131 22.0058 15.5415C18.9246 18.8518 16.7373 22.9553 15.2701 26.4913C17.7321 28.0814 20.8852 28.9453 23.8721 28.9453C23.9158 28.9453 23.9592 28.9462 24.0024 28.9481C24.0457 28.9462 24.0891 28.9453 24.1328 28.9453C27.1197 28.9453 30.2728 28.0814 32.7348 26.4913C31.2676 22.9553 29.0803 18.8518 25.9991 15.5415C25.3212 14.8131 24.6544 14.1701 24.0025 13.6048ZM37.0118 21.3743C35.4291 18.1099 33.2703 14.5471 30.3909 11.4536C30.055 11.0927 29.7172 10.7449 29.3778 10.4103C29.8857 10.2508 30.37 10.1418 30.8274 10.0767C33.1258 9.7497 34.9399 10.4836 36.1936 11.8424C38.3336 14.1617 38.5273 17.8769 37.0118 21.3743Z" fill="#FF3815"/>
</g>
<path d="M56.088 25.472C56.76 28.288 59.832 30.048 63.608 30.048C68.248 30.048 71.032 28 71.032 24.768C71.032 22.1439 69.208 20.4799 65.528 19.776L63.32 19.36C61.56 19.0079 61.112 18.656 61.112 17.792C61.112 16.896 61.88 16.256 63.384 16.256C64.952 16.256 66.104 17.12 66.616 18.496L70.36 16.8C69.592 15.008 67.448 13.12 63.608 13.12C59.352 13.12 56.728 15.104 56.728 18.176C56.728 21.248 58.552 22.4319 62.04 23.1039L64.312 23.5519C65.816 23.8399 66.296 24.3839 66.296 25.2479C66.296 26.1759 65.4 26.8479 63.864 26.8479C62.52 26.8479 61.624 26.5599 61.144 25.952C60.664 25.344 60.344 24.736 60.216 24.16L56.088 25.472Z" fill="#0A0A0A"/>
<path d="M71.954 13.6V17.056H75.314V25.408C75.314 27.936 76.818 29.5999 79.378 29.5999H84.722V25.9839H81.266C80.338 25.9839 79.858 25.504 79.858 24.576V17.056H84.018V13.6H79.858V8.57595H75.314V13.6H71.954Z" fill="#0A0A0A"/>
<path d="M94.0835 13.12C89.5715 13.12 86.7555 15.4559 86.4995 18.016L90.5955 18.912C90.9795 17.344 92.0675 16.384 94.1155 16.384C95.9075 16.384 96.7395 17.184 96.7395 18.592V19.2C90.8835 19.808 86.7875 21.152 86.6915 25.504C86.6915 28.2239 88.8675 30.1119 91.8115 30.1119C94.4035 30.1119 95.9715 28.576 96.7075 26.2719H98.2115C98.3075 28.7039 98.8515 29.5999 101.7 29.5999H103.588V26.1439H102.18C101.316 26.1439 101.22 26.048 101.22 25.184V19.328C101.22 15.2 98.6915 13.12 94.0835 13.12ZM91.2995 25.056C91.2995 23.0079 93.5395 22.4319 96.7395 22.0159V23.04C96.7395 25.5679 95.2035 26.7839 93.3795 26.7839C92.0035 26.7839 91.2995 26.1119 91.2995 25.056Z" fill="#0A0A0A"/>
<path d="M110.539 29.5999V25.216L112.875 22.944L117.867 29.5999H123.595L116.011 19.936L122.539 13.6H116.971L109.451 21.152L108.235 19.84C109.771 18.5599 110.539 17.408 110.539 14.272V7.19995H105.995V29.5999H110.539Z" fill="#0A0A0A"/>
<path d="M122.907 21.568C122.907 26.7839 126.139 30.1119 131.035 30.1119C134.587 30.1119 137.307 28.768 138.811 25.4399L134.747 23.872C133.979 25.6639 132.955 26.656 131.035 26.656C128.987 26.656 127.579 25.376 127.451 22.688H138.747C138.779 22.336 138.779 21.952 138.779 21.6C138.779 16.704 135.899 13.12 131.003 13.12C126.395 13.12 122.907 16.608 122.907 21.568ZM127.611 19.488C127.899 17.4399 129.179 16.384 131.003 16.384C132.955 16.384 134.043 17.408 134.267 19.488H127.611Z" fill="#0A0A0A"/>
<path d="M140.869 25.472C141.541 28.288 144.613 30.048 148.389 30.048C153.029 30.048 155.813 28 155.813 24.768C155.813 22.1439 153.989 20.4799 150.309 19.776L148.101 19.36C146.341 19.0079 145.893 18.656 145.893 17.792C145.893 16.896 146.661 16.256 148.165 16.256C149.733 16.256 150.885 17.12 151.397 18.496L155.141 16.8C154.373 15.008 152.229 13.12 148.389 13.12C144.133 13.12 141.509 15.104 141.509 18.176C141.509 21.248 143.333 22.4319 146.821 23.1039L149.093 23.5519C150.597 23.8399 151.077 24.3839 151.077 25.2479C151.077 26.1759 150.181 26.8479 148.645 26.8479C147.301 26.8479 146.405 26.5599 145.925 25.952C145.445 25.344 145.125 24.736 144.997 24.16L140.869 25.472Z" fill="#0A0A0A"/>
<path d="M158.962 29.5999H163.058V25.4399H158.962V29.5999Z" fill="#0A0A0A"/>
<path d="M166.313 25.504C166.985 28.4159 169.865 30.048 173.289 30.048C177.385 30.048 179.785 28.1919 179.785 25.1199C179.785 23.584 179.241 22.464 178.121 21.728C177.001 20.992 175.785 20.4799 174.409 20.224L172.521 19.84C170.345 19.36 169.833 18.912 169.833 17.792C169.833 16.672 170.857 15.648 172.905 15.648C175.113 15.648 176.233 16.896 176.745 18.3359L179.401 17.312C178.665 15.008 176.553 13.28 172.937 13.28C169.609 13.28 166.953 15.264 166.953 18.112C166.953 21.024 169.001 22.08 171.945 22.688L173.865 23.04C175.945 23.4559 176.713 24.2239 176.713 25.3759C176.713 26.7839 175.529 27.584 173.321 27.584C170.889 27.584 169.641 26.368 169.161 24.576L166.313 25.504Z" fill="#0A0A0A"/>
<path d="M182.475 21.664C182.475 26.4319 185.771 30.048 190.027 30.048C194.283 30.048 197.547 26.4319 197.547 21.664C197.547 16.896 194.379 13.28 190.027 13.28C185.707 13.28 182.475 16.896 182.475 21.664ZM194.443 21.728C194.443 25.472 192.715 27.4559 190.027 27.4559C187.307 27.4559 185.611 25.472 185.611 21.728C185.611 17.856 187.339 15.872 190.027 15.872C192.683 15.872 194.443 17.856 194.443 21.728Z" fill="#0A0A0A"/>
<path d="M200.351 21.632C200.351 26.7839 203.455 30.048 208.063 30.048C211.519 30.048 213.983 28.0959 215.103 25.0239L212.255 24.0319C211.615 26.08 210.335 27.4559 208.031 27.4559C205.375 27.4559 203.487 25.504 203.487 21.632C203.487 17.8879 205.503 15.872 207.999 15.872C210.047 15.872 211.295 17.056 211.903 18.848L214.719 17.8879C213.855 15.296 211.583 13.28 208.031 13.28C203.583 13.28 200.351 16.768 200.351 21.632Z" fill="#0A0A0A"/>
<path d="M218.47 10.784H221.67V7.19995H218.47V10.784ZM218.598 29.5999H221.606V13.728H218.598V29.5999Z" fill="#0A0A0A"/>
<path d="M232.449 13.28C228.417 13.28 226.081 15.424 225.473 17.728L228.289 18.688C228.897 16.768 230.305 15.808 232.449 15.808C234.753 15.808 235.777 16.832 235.777 18.752V19.232C232.769 19.456 230.369 20.064 228.545 21.056C226.721 22.016 225.793 23.4879 225.793 25.504C225.793 28.32 227.745 30.048 230.849 30.048C233.537 30.048 235.169 28.4799 235.777 26.2719H236.993C236.993 28.7999 237.633 29.5999 240.033 29.5999H241.345V27.0079H239.713C238.977 27.0079 238.785 26.8479 238.785 26.1119V18.848C238.785 15.36 236.673 13.28 232.449 13.28ZM228.897 25.2479C228.897 22.944 231.521 21.824 235.777 21.408V23.04C235.777 26.08 233.857 27.584 231.713 27.584C229.793 27.584 228.897 26.688 228.897 25.2479Z" fill="#0A0A0A"/>
<path d="M244.192 29.5999H247.2V7.19995H244.192V29.5999Z" fill="#0A0A0A"/>
<defs>
<filter id="filter0_d" x="0" y="0" width="48.0049" height="40" filterUnits="userSpaceOnUse" color-interpolation-filters="sRGB">
<feFlood flood-opacity="0" result="BackgroundImageFix"/>
<feColorMatrix in="SourceAlpha" type="matrix" values="0 0 0 0 0 0 0 0 0 0 0 0 0 0 0 0 0 0 127 0"/>
<feOffset/>
<feGaussianBlur stdDeviation="2"/>
<feColorMatrix type="matrix" values="0 0 0 0 1 0 0 0 0 0.219608 0 0 0 0 0.0823529 0 0 0 0.5 0"/>
<feBlend mode="normal" in2="BackgroundImageFix" result="effect1_dropShadow"/>
<feBlend mode="normal" in="SourceGraphic" in2="effect1_dropShadow" result="shape"/>
</filter>
</defs>
</svg>

<svg width="248" height="40" fill="none" xmlns="http://www.w3.org/2000/svg"><g filter="url(#a)"><path fill-rule="evenodd" clip-rule="evenodd" d="M18.627 10.41a9.146 9.146 0 0 0-1.45-.333c-2.298-.327-4.112.407-5.366 1.765-2.14 2.32-2.333 6.035-.818 9.532 1.583-3.264 3.742-6.827 6.621-9.92.336-.361.674-.71 1.013-1.044Zm5.376-4.149c-1.997-1.135-4.006-1.843-5.98-2.124-4.184-.596-7.984.779-10.621 3.637-5.21 5.646-3.72 13.759-.304 18.965.348.53.725 1.032 1.128 1.508a53.36 53.36 0 0 0-.611 1.996 42.64 42.64 0 0 0-.509 1.96l-.027.121-.008.036-.002.012-.001.006s0 .002 2.935.621l-2.936-.62a3 3 0 0 0 5.87 1.241l.003-.012.017-.076c.017-.072.043-.184.08-.334.054-.225.133-.534.237-.915 3.363 1.823 7.208 2.662 10.598 2.662.044 0 .087 0 .13-.003l.13.003c3.391 0 7.236-.839 10.598-2.662a34.654 34.654 0 0 1 .318 1.249l.017.076.002.011v.001a3 3 0 0 0 5.87-1.24l-2.935.62c2.935-.62 2.935-.622 2.935-.622l-.001-.006-.003-.012-.007-.036-.028-.121a42.664 42.664 0 0 0-.508-1.96 53.153 53.153 0 0 0-.611-1.996c.403-.476.78-.978 1.128-1.508 3.416-5.206 4.907-13.319-.304-18.965-2.637-2.858-6.437-4.233-10.62-3.637-1.975.28-3.984.989-5.98 2.124Zm0 7.344a26.027 26.027 0 0 0-1.997 1.936c-3.081 3.31-5.269 7.414-6.736 10.95 2.462 1.59 5.615 2.454 8.602 2.454.044 0 .087.001.13.003l.13-.003c2.988 0 6.14-.864 8.603-2.454-1.467-3.536-3.655-7.64-6.736-10.95a26.045 26.045 0 0 0-1.996-1.936Zm13.009 7.77c-1.583-3.265-3.742-6.828-6.621-9.921a33.84 33.84 0 0 0-1.013-1.044c.508-.16.992-.268 1.45-.333 2.298-.327 4.112.407 5.366 1.765 2.14 2.32 2.333 6.035.818 9.532Z" fill="#FF3815"/></g><path d="M56.088 25.472c.672 2.816 3.744 4.576 7.52 4.576 4.64 0 7.424-2.048 7.424-5.28 0-2.624-1.824-4.288-5.504-4.992l-2.208-.416c-1.76-.352-2.208-.704-2.208-1.568 0-.896.768-1.536 2.272-1.536 1.568 0 2.72.864 3.232 2.24L70.36 16.8c-.768-1.792-2.912-3.68-6.752-3.68-4.256 0-6.88 1.984-6.88 5.056s1.824 4.256 5.312 4.928l2.272.448c1.504.288 1.984.832 1.984 1.696 0 .928-.896 1.6-2.432 1.6-1.344 0-2.24-.288-2.72-.896-.48-.608-.8-1.216-.928-1.792l-4.128 1.312ZM71.954 13.6v3.456h3.36v8.352c0 2.528 1.504 4.192 4.064 4.192h5.344v-3.616h-3.456c-.928 0-1.408-.48-1.408-1.408v-7.52h4.16V13.6h-4.16V8.576h-4.544V13.6h-3.36Zm22.13-.48c-4.513 0-7.329 2.336-7.585 4.896l4.097.896c.383-1.568 1.471-2.528 3.52-2.528 1.791 0 2.624.8 2.624 2.208v.608c-5.856.608-9.953 1.952-10.048 6.304 0 2.72 2.176 4.608 5.12 4.608 2.591 0 4.16-1.536 4.895-3.84h1.505c.096 2.432.64 3.328 3.488 3.328h1.888v-3.456h-1.408c-.864 0-.96-.096-.96-.96v-5.856c0-4.128-2.528-6.208-7.136-6.208Zm-2.785 11.936c0-2.048 2.24-2.624 5.44-3.04v1.024c0 2.528-1.535 3.744-3.36 3.744-1.376 0-2.08-.672-2.08-1.728Zm19.24 4.544v-4.384l2.336-2.272 4.992 6.656h5.728l-7.584-9.664 6.528-6.336h-5.568l-7.52 7.552-1.216-1.312c1.536-1.28 2.304-2.432 2.304-5.568V7.2h-4.544v22.4h4.544Z" fill="#0A0A0A"/><path d="M122.907 21.568c0 5.216 3.232 8.544 8.128 8.544 3.552 0 6.272-1.344 7.776-4.672l-4.064-1.568c-.768 1.792-1.792 2.784-3.712 2.784-2.048 0-3.456-1.28-3.584-3.968h11.296c.032-.352.032-.736.032-1.088 0-4.896-2.88-8.48-7.776-8.48-4.608 0-8.096 3.488-8.096 8.448Zm4.704-2.08c.288-2.048 1.568-3.104 3.392-3.104 1.952 0 3.04 1.024 3.264 3.104h-6.656Zm13.258 5.984c.672 2.816 3.744 4.576 7.52 4.576 4.64 0 7.424-2.048 7.424-5.28 0-2.624-1.824-4.288-5.504-4.992l-2.208-.416c-1.76-.352-2.208-.704-2.208-1.568 0-.896.768-1.536 2.272-1.536 1.568 0 2.72.864 3.232 2.24l3.744-1.696c-.768-1.792-2.912-3.68-6.752-3.68-4.256 0-6.88 1.984-6.88 5.056s1.824 4.256 5.312 4.928l2.272.448c1.504.288 1.984.832 1.984 1.696 0 .928-.896 1.6-2.432 1.6-1.344 0-2.24-.288-2.72-.896-.48-.608-.8-1.216-.928-1.792l-4.128 1.312Zm18.093 4.128h4.096v-4.16h-4.096v4.16Zm7.351-4.096c.672 2.912 3.552 4.544 6.976 4.544 4.096 0 6.496-1.856 6.496-4.928 0-1.536-.544-2.656-1.664-3.392a9.982 9.982 0 0 0-3.712-1.504l-1.888-.384c-2.176-.48-2.688-.928-2.688-2.048s1.024-2.144 3.072-2.144c2.208 0 3.328 1.248 3.84 2.688l2.656-1.024c-.736-2.304-2.848-4.032-6.464-4.032-3.328 0-5.984 1.984-5.984 4.832 0 2.912 2.048 3.968 4.992 4.576l1.92.352c2.08.416 2.848 1.184 2.848 2.336 0 1.408-1.184 2.208-3.392 2.208-2.432 0-3.68-1.216-4.16-3.008l-2.848.928Zm16.162-3.84c0 4.768 3.296 8.384 7.552 8.384s7.52-3.616 7.52-8.384c0-4.768-3.168-8.384-7.52-8.384-4.32 0-7.552 3.616-7.552 8.384Zm11.968.064c0 3.744-1.728 5.728-4.416 5.728-2.72 0-4.416-1.984-4.416-5.728 0-3.872 1.728-5.856 4.416-5.856 2.656 0 4.416 1.984 4.416 5.856Zm5.908-.096c0 5.152 3.104 8.416 7.712 8.416 3.456 0 5.92-1.952 7.04-5.024l-2.848-.992c-.64 2.048-1.92 3.424-4.224 3.424-2.656 0-4.544-1.952-4.544-5.824 0-3.744 2.016-5.76 4.512-5.76 2.048 0 3.296 1.184 3.904 2.976l2.816-.96c-.864-2.592-3.136-4.608-6.688-4.608-4.448 0-7.68 3.488-7.68 8.352Zm18.119-10.848h3.2V7.2h-3.2v3.584Zm.128 18.816h3.008V13.728h-3.008V29.6Zm13.851-16.32c-4.032 0-6.368 2.144-6.976 4.448l2.816.96c.608-1.92 2.016-2.88 4.16-2.88 2.304 0 3.328 1.024 3.328 2.944v.48c-3.008.224-5.408.832-7.232 1.824-1.824.96-2.752 2.432-2.752 4.448 0 2.816 1.952 4.544 5.056 4.544 2.688 0 4.32-1.568 4.928-3.776h1.216c0 2.528.64 3.328 3.04 3.328h1.312v-2.592h-1.632c-.736 0-.928-.16-.928-.896v-7.264c0-3.488-2.112-5.568-6.336-5.568Zm-3.552 11.968c0-2.304 2.624-3.424 6.88-3.84v1.632c0 3.04-1.92 4.544-4.064 4.544-1.92 0-2.816-.896-2.816-2.336Zm15.295 4.352h3.008V7.2h-3.008v22.4Z" fill="#0A0A0A"/><defs><filter id="a" x="0" y="0" width="48.005" height="40" filterUnits="userSpaceOnUse" color-interpolation-filters="sRGB"><feFlood flood-opacity="0" result="BackgroundImageFix"/><feColorMatrix in="SourceAlpha" values="0 0 0 0 0 0 0 0 0 0 0 0 0 0 0 0 0 0 127 0"/><feOffset/><feGaussianBlur stdDeviation="2"/><feColorMatrix values="0 0 0 0 1 0 0 0 0 0.219608 0 0 0 0 0.0823529 0 0 0 0.5 0"/><feBlend in2="BackgroundImageFix" result="effect1_dropShadow"/><feBlend in="SourceGraphic" in2="effect1_dropShadow" result="shape"/></filter></defs></svg>
